assets/dude/Did–Tammy.svg

<svg width="239" height="105" viewBox="0 0 239 105" fill="none" xmlns="http://www.w3.org/2000/svg">
<path d="M86.3822 35.92C86.6622 24.16 88.9022 13.24 88.9022 11.98C88.9022 10.72 88.2022 10.02 86.9422 10.02C58.8021 10.02 63.4222 0.780029 44.8022 0.780029C26.1821 0.780029 30.8021 10.02 2.66215 10.02C1.40215 10.02 0.702148 10.72 0.702148 11.98C0.702148 13.24 3.22215 25.28 3.22215 37.74C3.22215 38.44 3.78215 39 4.48215 39H18.3421C19.0421 39 19.6021 39.56 19.6021 40.26V65.46C19.6021 66.16 19.0421 66.72 18.3421 66.72H4.48215C3.78215 66.72 3.22215 67.28 3.22215 67.98C3.22215 80.44 0.702148 92.48 0.702148 93.74C0.702148 95 1.40215 95.7 2.66215 95.7C30.8021 95.7 26.1821 104.94 44.8022 104.94C63.4222 104.94 58.8021 95.7 86.9422 95.7C88.2022 95.7 88.9022 95 88.9022 93.74C88.9022 92.48 86.6622 81.56 86.3822 69.8V35.92ZM76.3021 47.82V57.9C76.3021 62.8 72.3822 66.72 67.4822 66.72H30.9422C30.2422 66.72 29.6821 66.16 29.6821 65.46V40.26C29.6821 39.56 30.2422 39 30.9422 39H67.4822C72.3822 39 76.3021 42.92 76.3021 47.82Z" fill="#FF1C31"/>
<path d="M124.565 40.26C124.565 39.56 125.125 39 125.825 39H139.685C140.385 39 140.945 38.44 140.945 37.74C140.945 25.28 143.465 13.24 143.465 11.98C143.465 10.72 142.765 10.02 141.505 10.02C135.345 10.02 128.065 2.74003 119.525 2.74003C110.985 2.74003 103.705 10.02 97.545 10.02C96.285 10.02 95.585 10.72 95.585 11.98C95.585 13.24 98.105 25.28 98.105 37.74C98.105 38.44 98.665 39 99.365 39H113.225C113.925 39 114.485 39.56 114.485 40.26V65.46C114.485 66.16 113.925 66.72 113.225 66.72H99.365C98.665 66.72 98.105 67.28 98.105 67.98C98.105 80.44 95.585 92.48 95.585 93.74C95.585 95 96.285 95.7 97.545 95.7C103.705 95.7 110.985 102.98 119.525 102.98C128.065 102.98 135.345 95.7 141.505 95.7C142.765 95.7 143.465 95 143.465 93.74C143.465 92.48 140.945 80.44 140.945 67.98C140.945 67.28 140.385 66.72 139.685 66.72H125.825C125.125 66.72 124.565 66.16 124.565 65.46V40.26Z" fill="#FF1C31"/>
<path d="M235.816 35.92C236.096 24.16 238.336 13.24 238.336 11.98C238.336 10.72 237.636 10.02 236.376 10.02C208.236 10.02 212.856 0.780029 194.236 0.780029C175.616 0.780029 180.236 10.02 152.096 10.02C150.836 10.02 150.136 10.72 150.136 11.98C150.136 13.24 152.656 25.28 152.656 37.74C152.656 38.44 153.216 39 153.916 39H167.776C168.476 39 169.036 39.56 169.036 40.26V65.46C169.036 66.16 168.476 66.72 167.776 66.72H153.916C153.216 66.72 152.656 67.28 152.656 67.98C152.656 80.44 150.136 92.48 150.136 93.74C150.136 95 150.836 95.7 152.096 95.7C180.236 95.7 175.616 104.94 194.236 104.94C212.856 104.94 208.236 95.7 236.376 95.7C237.636 95.7 238.336 95 238.336 93.74C238.336 92.48 236.096 81.56 235.816 69.8V35.92ZM225.736 47.82V57.9C225.736 62.8 221.816 66.72 216.916 66.72H180.376C179.676 66.72 179.116 66.16 179.116 65.46V40.26C179.116 39.56 179.676 39 180.376 39H216.916C221.816 39 225.736 42.92 225.736 47.82Z" fill="#FF1C31"/>
</svg>

<svg xmlns="http://www.w3.org/2000/svg" fill="none" viewBox="0 0 239 105"><path fill="#FF1C31" d="M86.382 35.92c.28-11.76 2.52-22.68 2.52-23.94 0-1.26-.7-1.96-1.96-1.96-28.14 0-23.52-9.24-42.14-9.24s-14 9.24-42.14 9.24c-1.26 0-1.96.7-1.96 1.96s2.52 13.3 2.52 25.76c0 .7.56 1.26 1.26 1.26h13.86c.7 0 1.26.56 1.26 1.26v25.2c0 .7-.56 1.26-1.26 1.26H4.482c-.7 0-1.26.56-1.26 1.26 0 12.46-2.52 24.5-2.52 25.76 0 1.26.7 1.96 1.96 1.96 28.14 0 23.52 9.24 42.14 9.24s14-9.24 42.14-9.24c1.26 0 1.96-.7 1.96-1.96s-2.24-12.18-2.52-23.94V35.92zm-10.08 11.9V57.9c0 4.9-3.92 8.82-8.82 8.82h-36.54c-.7 0-1.26-.56-1.26-1.26v-25.2c0-.7.56-1.26 1.26-1.26h36.54c4.9 0 8.82 3.92 8.82 8.82zM124.565 40.26c0-.7.56-1.26 1.26-1.26h13.86c.7 0 1.26-.56 1.26-1.26 0-12.46 2.52-24.5 2.52-25.76 0-1.26-.7-1.96-1.96-1.96-6.16 0-13.44-7.28-21.98-7.28-8.54 0-15.82 7.28-21.98 7.28-1.26 0-1.96.7-1.96 1.96s2.52 13.3 2.52 25.76c0 .7.56 1.26 1.26 1.26h13.86c.7 0 1.26.56 1.26 1.26v25.2c0 .7-.56 1.26-1.26 1.26h-13.86c-.7 0-1.26.56-1.26 1.26 0 12.46-2.52 24.5-2.52 25.76 0 1.26.7 1.96 1.96 1.96 6.16 0 13.44 7.28 21.98 7.28 8.54 0 15.82-7.28 21.98-7.28 1.26 0 1.96-.7 1.96-1.96s-2.52-13.3-2.52-25.76c0-.7-.56-1.26-1.26-1.26h-13.86c-.7 0-1.26-.56-1.26-1.26v-25.2zM235.816 35.92c.28-11.76 2.52-22.68 2.52-23.94 0-1.26-.7-1.96-1.96-1.96-28.14 0-23.52-9.24-42.14-9.24s-14 9.24-42.14 9.24c-1.26 0-1.96.7-1.96 1.96s2.52 13.3 2.52 25.76c0 .7.56 1.26 1.26 1.26h13.86c.7 0 1.26.56 1.26 1.26v25.2c0 .7-.56 1.26-1.26 1.26h-13.86c-.7 0-1.26.56-1.26 1.26 0 12.46-2.52 24.5-2.52 25.76 0 1.26.7 1.96 1.96 1.96 28.14 0 23.52 9.24 42.14 9.24s14-9.24 42.14-9.24c1.26 0 1.96-.7 1.96-1.96s-2.24-12.18-2.52-23.94V35.92zm-10.08 11.9V57.9c0 4.9-3.92 8.82-8.82 8.82h-36.54c-.7 0-1.26-.56-1.26-1.26v-25.2c0-.7.56-1.26 1.26-1.26h36.54c4.9 0 8.82 3.92 8.82 8.82z"/></svg>
